X:216 
T:True Daughter of Sligo* (reel), A
F:file ID: cre.5/216true_d
B:CRE5.183 (gan ainm)
N:This tune - especially the A part - sounds very 
close to "Sligo Maid".
M:4/4
Q:180
R:reel
K:Am
A2BA (3Bcd e^f|gedB GBdB|A2BA (3Bcd e^f|ge^fd BAA2|
A2BA (3Bcd e^f|gedB GBdB|A2BA (3Bcd e^f|ge^fd BAA2:|
a2ga ba~a2|gedB GABG|a2ga ba~a2|ge^fd BAA2|
a2ga ba~a2|gedB GBdB|A2BA (3Bcd e^f|ge^fd BAA2:|


%%%

